assets/1. 1-F/Eleven-thirty/Color/Eleven-thirty-color.svg

<svg width="100%" height="100%" viewBox="0 0 32 32" fill="none" xmlns="http://www.w3.org/2000/svg">
<path d="M30.0312 16C30.0312 23.732 23.7632 30 16.0312 30C8.2992 30 2.03119 23.732 2.03119 16C2.03119 8.26801 8.2992 2 16.0312 2C23.7632 2 30.0312 8.26801 30.0312 16Z" fill="url(#paint0_radial_18_13627)"/>
<g filter="url(#filter0_f_18_13627)">
<path d="M11.5476 10.9662C12.0259 10.6901 12.6375 10.854 12.9136 11.3323L15.0441 15.0224C15.0502 15.0223 15.0563 15.0223 15.0624 15.0223C16.1608 15.0223 17.0512 15.9128 17.0512 17.0112C17.0512 17.746 16.6527 18.3877 16.06 18.7321V25.0066C16.06 25.5589 15.6123 26.0066 15.06 26.0066C14.5077 26.0066 14.06 25.5589 14.06 25.0066V18.7293C13.4699 18.3843 13.0735 17.744 13.0735 17.0112C13.0735 16.6599 13.1646 16.33 13.3243 16.0436L11.1816 12.3323C10.9054 11.854 11.0693 11.2424 11.5476 10.9662Z" fill="#C2BEC5"/>
</g>
<g filter="url(#filter1_i_18_13627)">
<path fill-rule="evenodd" clip-rule="evenodd" d="M16.06 15.0112C16.6123 15.0112 17.06 15.4589 17.06 16.0112V24.0066C17.06 24.5589 16.6123 25.0066 16.06 25.0066C15.5077 25.0066 15.06 24.5589 15.06 24.0066V16.0112C15.06 15.4589 15.5077 15.0112 16.06 15.0112Z" fill="url(#paint1_linear_18_13627)"/>
<path fill-rule="evenodd" clip-rule="evenodd" d="M16.06 15.0112C16.6123 15.0112 17.06 15.4589 17.06 16.0112V24.0066C17.06 24.5589 16.6123 25.0066 16.06 25.0066C15.5077 25.0066 15.06 24.5589 15.06 24.0066V16.0112C15.06 15.4589 15.5077 15.0112 16.06 15.0112Z" fill="url(#paint2_radial_18_13627)"/>
</g>
<path fill-rule="evenodd" clip-rule="evenodd" d="M12.5476 9.96619C13.0259 9.69004 13.6375 9.85392 13.9136 10.3322L16.8972 15.4999C17.1734 15.9782 17.0095 16.5898 16.5312 16.866C16.0529 17.1421 15.4413 16.9782 15.1652 16.4999L12.1816 11.3322C11.9054 10.8539 12.0693 10.2423 12.5476 9.96619Z" fill="url(#paint3_linear_18_13627)"/>
<path fill-rule="evenodd" clip-rule="evenodd" d="M12.5476 9.96619C13.0259 9.69004 13.6375 9.85392 13.9136 10.3322L16.8972 15.4999C17.1734 15.9782 17.0095 16.5898 16.5312 16.866C16.0529 17.1421 15.4413 16.9782 15.1652 16.4999L12.1816 11.3322C11.9054 10.8539 12.0693 10.2423 12.5476 9.96619Z" fill="url(#paint4_linear_18_13627)"/>
<path fill-rule="evenodd" clip-rule="evenodd" d="M12.5476 9.96619C13.0259 9.69004 13.6375 9.85392 13.9136 10.3322L16.8972 15.4999C17.1734 15.9782 17.0095 16.5898 16.5312 16.866C16.0529 17.1421 15.4413 16.9782 15.1652 16.4999L12.1816 11.3322C11.9054 10.8539 12.0693 10.2423 12.5476 9.96619Z" fill="url(#paint5_radial_18_13627)"/>
<path fill-rule="evenodd" clip-rule="evenodd" d="M12.5476 9.96619C13.0259 9.69004 13.6375 9.85392 13.9136 10.3322L16.8972 15.4999C17.1734 15.9782 17.0095 16.5898 16.5312 16.866C16.0529 17.1421 15.4413 16.9782 15.1652 16.4999L12.1816 11.3322C11.9054 10.8539 12.0693 10.2423 12.5476 9.96619Z" fill="url(#paint6_linear_18_13627)"/>
<g filter="url(#filter2_ii_18_13627)">
<path fill-rule="evenodd" clip-rule="evenodd" d="M16.0312 27C22.1063 27 27.0312 22.0751 27.0312 16C27.0312 9.92487 22.1063 5 16.0312 5C9.95606 5 5.03119 9.92487 5.03119 16C5.03119 22.0751 9.95606 27 16.0312 27ZM16.0312 30C23.7632 30 30.0312 23.732 30.0312 16C30.0312 8.26801 23.7632 2 16.0312 2C8.2992 2 2.03119 8.26801 2.03119 16C2.03119 23.732 8.2992 30 16.0312 30Z" fill="url(#paint7_linear_18_13627)"/>
</g>
<path d="M18.0512 16.0112C18.0512 17.1096 17.1608 18 16.0624 18C14.964 18 14.0735 17.1096 14.0735 16.0112C14.0735 14.9128 14.964 14.0223 16.0624 14.0223C17.1608 14.0223 18.0512 14.9128 18.0512 16.0112Z" fill="url(#paint8_radial_18_13627)"/>
<path d="M18.0512 16.0112C18.0512 17.1096 17.1608 18 16.0624 18C14.964 18 14.0735 17.1096 14.0735 16.0112C14.0735 14.9128 14.964 14.0223 16.0624 14.0223C17.1608 14.0223 18.0512 14.9128 18.0512 16.0112Z" fill="url(#paint9_radial_18_13627)"/>
<defs>
<filter id="filter0_f_18_13627" x="9.54742" y="9.33209" width="9.00378" height="18.1745" filterUnits="userSpaceOnUse" color-interpolation-filters="sRGB">
<feFlood flood-opacity="0" result="BackgroundImageFix"/>
<feBlend mode="normal" in="SourceGraphic" in2="BackgroundImageFix" result="shape"/>
<feGaussianBlur stdDeviation="0.75" result="effect1_foregroundBlur_18_13627"/>
</filter>
<filter id="filter1_i_18_13627" x="15.06" y="15.0112" width="2.6" height="9.99539" filterUnits="userSpaceOnUse" color-interpolation-filters="sRGB">
<feFlood flood-opacity="0" result="BackgroundImageFix"/>
<feBlend mode="normal" in="SourceGraphic" in2="BackgroundImageFix" result="shape"/>
<feColorMatrix in="SourceAlpha" type="matrix" values="0 0 0 0 0 0 0 0 0 0 0 0 0 0 0 0 0 0 127 0" result="hardAlpha"/>
<feOffset dx="0.6"/>
<feGaussianBlur stdDeviation="0.425"/>
<feComposite in2="hardAlpha" operator="arithmetic" k2="-1" k3="1"/>
<feColorMatrix type="matrix" values="0 0 0 0 0.635294 0 0 0 0 0.227451 0 0 0 0 0.403922 0 0 0 1 0"/>
<feBlend mode="normal" in2="shape" result="effect1_innerShadow_18_13627"/>
</filter>
<filter id="filter2_ii_18_13627" x="1.63119" y="1.6" width="28.8" height="28.8" filterUnits="userSpaceOnUse" color-interpolation-filters="sRGB">
<feFlood flood-opacity="0" result="BackgroundImageFix"/>
<feBlend mode="normal" in="SourceGraphic" in2="BackgroundImageFix" result="shape"/>
<feColorMatrix in="SourceAlpha" type="matrix" values="0 0 0 0 0 0 0 0 0 0 0 0 0 0 0 0 0 0 127 0" result="hardAlpha"/>
<feOffset dx="0.4" dy="-0.4"/>
<feGaussianBlur stdDeviation="0.3"/>
<feComposite in2="hardAlpha" operator="arithmetic" k2="-1" k3="1"/>
<feColorMatrix type="matrix" values="0 0 0 0 0.282353 0 0 0 0 0.254902 0 0 0 0 0.313726 0 0 0 1 0"/>
<feBlend mode="normal" in2="shape" result="effect1_innerShadow_18_13627"/>
<feColorMatrix in="SourceAlpha" type="matrix" values="0 0 0 0 0 0 0 0 0 0 0 0 0 0 0 0 0 0 127 0" result="hardAlpha"/>
<feOffset dx="-0.4" dy="0.4"/>
<feGaussianBlur stdDeviation="0.3"/>
<feComposite in2="hardAlpha" operator="arithmetic" k2="-1" k3="1"/>
<feColorMatrix type="matrix" values="0 0 0 0 0.533333 0 0 0 0 0.533333 0 0 0 0 0.533333 0 0 0 1 0"/>
<feBlend mode="normal" in2="effect1_innerShadow_18_13627" result="effect2_innerShadow_18_13627"/>
</filter>
<radialGradient id="paint0_radial_18_13627" cx="0" cy="0" r="1" gradientUnits="userSpaceOnUse" gradientTransform="translate(9.60523 24.4982) rotate(-46.2124) scale(25.2966)">
<stop offset="0.598155" stop-color="#DDDADF"/>
<stop offset="1" stop-color="#BDBABF"/>
</radialGradient>
<linearGradient id="paint1_linear_18_13627" x1="16.06" y1="15.0112" x2="16.06" y2="25.0066" gradientUnits="userSpaceOnUse">
<stop stop-color="#F74093"/>
<stop offset="1" stop-color="#F83F4C"/>
</linearGradient>
<radialGradient id="paint2_radial_18_13627" cx="0" cy="0" r="1" gradientUnits="userSpaceOnUse" gradientTransform="translate(16.7052 16.9375) rotate(150.018) scale(3.75208 1.82648)">
<stop offset="0.115385" stop-color="#911A57"/>
<stop offset="1" stop-color="#911A57" stop-opacity="0"/>
</radialGradient>
<linearGradient id="paint3_linear_18_13627" x1="12.5476" y1="9.96619" x2="15.4533" y2="14.999" gradientUnits="userSpaceOnUse">
<stop stop-color="#32183D"/>
<stop offset="1" stop-color="#2C3A65"/>
</linearGradient>
<linearGradient id="paint4_linear_18_13627" x1="13.1967" y1="13.0904" x2="14.0627" y2="12.5904" gradientUnits="userSpaceOnUse">
<stop stop-color="#2E2840"/>
<stop offset="1" stop-color="#2E2840" stop-opacity="0"/>
</linearGradient>
<radialGradient id="paint5_radial_18_13627" cx="0" cy="0" r="1" gradientUnits="userSpaceOnUse" gradientTransform="translate(13.2715 10.0013) rotate(60) scale(5.73026 0.815281)">
<stop stop-color="#50375F"/>
<stop offset="1" stop-color="#50375F" stop-opacity="0"/>
</radialGradient>
<linearGradient id="paint6_linear_18_13627" x1="12.5476" y1="9.96619" x2="12.9064" y2="10.5877" gradientUnits="userSpaceOnUse">
<stop stop-color="#3E1846"/>
<stop offset="1" stop-color="#3E1846" stop-opacity="0"/>
</linearGradient>
<linearGradient id="paint7_linear_18_13627" x1="24.542" y1="4.01349" x2="4.31498" y2="28.5336" gradientUnits="userSpaceOnUse">
<stop stop-color="#6D6B70"/>
<stop offset="1" stop-color="#706C74"/>
</linearGradient>
<radialGradient id="paint8_radial_18_13627" cx="0" cy="0" r="1" gradientUnits="userSpaceOnUse" gradientTransform="translate(17.1422 15.5527) rotate(134.039) scale(3.40442)">
<stop stop-color="#C9C6CC"/>
<stop offset="1" stop-color="#928E95"/>
</radialGradient>
<radialGradient id="paint9_radial_18_13627" cx="0" cy="0" r="1" gradientUnits="userSpaceOnUse" gradientTransform="translate(16.6249 15.5047) rotate(139.399) scale(2.88111)">
<stop offset="0.527069" stop-color="#776F7F" stop-opacity="0"/>
<stop offset="1" stop-color="#776F7F"/>
</radialGradient>
</defs>
</svg>

<svg width="100%" height="100%" viewBox="0 0 32 32" xmlns="http://www.w3.org/2000/svg"><path fill="url(#a)" d="M30.031 16c0 7.732-6.268 14-14 14s-14-6.268-14-14 6.268-14 14-14 14 6.268 14 14"/><g filter="url(#b)"><path fill="#C2BEC5" d="M11.548 10.966a1 1 0 0 1 1.366.366l2.13 3.69h.018a1.989 1.989 0 0 1 .998 3.71v6.275a1 1 0 1 1-2 0v-6.278a1.99 1.99 0 0 1-.736-2.685l-2.142-3.712a1 1 0 0 1 .366-1.366"/></g><g fill-rule="evenodd" clip-rule="evenodd" filter="url(#c)"><path fill="url(#d)" d="M16.06 15.011a1 1 0 0 1 1 1v7.996a1 1 0 1 1-2 0V16.01a1 1 0 0 1 1-1"/><path fill="url(#e)" d="M16.06 15.011a1 1 0 0 1 1 1v7.996a1 1 0 1 1-2 0V16.01a1 1 0 0 1 1-1"/></g><path fill="url(#f)" fill-rule="evenodd" d="M12.548 9.966a1 1 0 0 1 1.366.366l2.983 5.168a1 1 0 1 1-1.732 1l-2.983-5.168a1 1 0 0 1 .366-1.366" clip-rule="evenodd"/><path fill="url(#g)" fill-rule="evenodd" d="M12.548 9.966a1 1 0 0 1 1.366.366l2.983 5.168a1 1 0 1 1-1.732 1l-2.983-5.168a1 1 0 0 1 .366-1.366" clip-rule="evenodd"/><path fill="url(#h)" fill-rule="evenodd" d="M12.548 9.966a1 1 0 0 1 1.366.366l2.983 5.168a1 1 0 1 1-1.732 1l-2.983-5.168a1 1 0 0 1 .366-1.366" clip-rule="evenodd"/><path fill="url(#i)" fill-rule="evenodd" d="M12.548 9.966a1 1 0 0 1 1.366.366l2.983 5.168a1 1 0 1 1-1.732 1l-2.983-5.168a1 1 0 0 1 .366-1.366" clip-rule="evenodd"/><g filter="url(#j)"><path fill="url(#k)" fill-rule="evenodd" d="M16.031 27c6.075 0 11-4.925 11-11s-4.925-11-11-11-11 4.925-11 11 4.925 11 11 11m0 3c7.732 0 14-6.268 14-14s-6.268-14-14-14-14 6.268-14 14 6.268 14 14 14" clip-rule="evenodd"/></g><path fill="url(#l)" d="M18.051 16.011a1.989 1.989 0 1 1-3.977 0 1.989 1.989 0 0 1 3.977 0"/><path fill="url(#m)" d="M18.051 16.011a1.989 1.989 0 1 1-3.977 0 1.989 1.989 0 0 1 3.977 0"/><defs><radialGradient id="a" cx="0" cy="0" r="1" gradientTransform="rotate(-46.212 33.512 .993)scale(25.2966)" gradientUnits="userSpaceOnUse"><stop offset=".598" stop-color="#DDDADF"/><stop offset="1" stop-color="#BDBABF"/></radialGradient><radialGradient id="e" cx="0" cy="0" r="1" gradientTransform="rotate(150.018 6.085 10.705)scale(3.75208 1.82648)" gradientUnits="userSpaceOnUse"><stop offset=".115" stop-color="#911A57"/><stop offset="1" stop-color="#911A57" stop-opacity="0"/></radialGradient><radialGradient id="h" cx="0" cy="0" r="1" gradientTransform="matrix(2.86513 4.96255 -.70605 .40764 13.271 10.001)" gradientUnits="userSpaceOnUse"><stop stop-color="#50375F"/><stop offset="1" stop-color="#50375F" stop-opacity="0"/></radialGradient><radialGradient id="l" cx="0" cy="0" r="1" gradientTransform="rotate(134.039 5.273 11.411)scale(3.40442)" gradientUnits="userSpaceOnUse"><stop stop-color="#C9C6CC"/><stop offset="1" stop-color="#928E95"/></radialGradient><radialGradient id="m" cx="0" cy="0" r="1" gradientTransform="rotate(139.399 5.445 10.827)scale(2.88111)" gradientUnits="userSpaceOnUse"><stop offset=".527" stop-color="#776F7F" stop-opacity="0"/><stop offset="1" stop-color="#776F7F"/></radialGradient><linearGradient id="d" x1="16.06" x2="16.06" y1="15.011" y2="25.007" gradientUnits="userSpaceOnUse"><stop stop-color="#F74093"/><stop offset="1" stop-color="#F83F4C"/></linearGradient><linearGradient id="f" x1="12.548" x2="15.453" y1="9.966" y2="14.999" gradientUnits="userSpaceOnUse"><stop stop-color="#32183D"/><stop offset="1" stop-color="#2C3A65"/></linearGradient><linearGradient id="g" x1="13.197" x2="14.063" y1="13.09" y2="12.59" gradientUnits="userSpaceOnUse"><stop stop-color="#2E2840"/><stop offset="1" stop-color="#2E2840" stop-opacity="0"/></linearGradient><linearGradient id="i" x1="12.548" x2="12.906" y1="9.966" y2="10.588" gradientUnits="userSpaceOnUse"><stop stop-color="#3E1846"/><stop offset="1" stop-color="#3E1846" stop-opacity="0"/></linearGradient><linearGradient id="k" x1="24.542" x2="4.315" y1="4.013" y2="28.534" gradientUnits="userSpaceOnUse"><stop stop-color="#6D6B70"/><stop offset="1" stop-color="#706C74"/></linearGradient><filter id="b" width="9.004" height="18.174" x="9.547" y="9.332" color-interpolation-filters="sRGB" filterUnits="userSpaceOnUse"><feFlood flood-opacity="0" result="BackgroundImageFix"/><feBlend in="SourceGraphic" in2="BackgroundImageFix" result="shape"/><feGaussianBlur result="effect1_foregroundBlur_18_13627" stdDeviation=".75"/></filter><filter id="c" width="2.6" height="9.995" x="15.06" y="15.011" color-interpolation-filters="sRGB" filterUnits="userSpaceOnUse"><feFlood flood-opacity="0" result="BackgroundImageFix"/><feBlend in="SourceGraphic" in2="BackgroundImageFix" result="shape"/><feColorMatrix in="SourceAlpha" result="hardAlpha" values="0 0 0 0 0 0 0 0 0 0 0 0 0 0 0 0 0 0 127 0"/><feOffset dx=".6"/><feGaussianBlur stdDeviation=".425"/><feComposite in2="hardAlpha" k2="-1" k3="1" operator="arithmetic"/><feColorMatrix values="0 0 0 0 0.635294 0 0 0 0 0.227451 0 0 0 0 0.403922 0 0 0 1 0"/><feBlend in2="shape" result="effect1_innerShadow_18_13627"/></filter><filter id="j" width="28.8" height="28.8" x="1.631" y="1.6" color-interpolation-filters="sRGB" filterUnits="userSpaceOnUse"><feFlood flood-opacity="0" result="BackgroundImageFix"/><feBlend in="SourceGraphic" in2="BackgroundImageFix" result="shape"/><feColorMatrix in="SourceAlpha" result="hardAlpha" values="0 0 0 0 0 0 0 0 0 0 0 0 0 0 0 0 0 0 127 0"/><feOffset dx=".4" dy="-.4"/><feGaussianBlur stdDeviation=".3"/><feComposite in2="hardAlpha" k2="-1" k3="1" operator="arithmetic"/><feColorMatrix values="0 0 0 0 0.282353 0 0 0 0 0.254902 0 0 0 0 0.313726 0 0 0 1 0"/><feBlend in2="shape" result="effect1_innerShadow_18_13627"/><feColorMatrix in="SourceAlpha" result="hardAlpha" values="0 0 0 0 0 0 0 0 0 0 0 0 0 0 0 0 0 0 127 0"/><feOffset dx="-.4" dy=".4"/><feGaussianBlur stdDeviation=".3"/><feComposite in2="hardAlpha" k2="-1" k3="1" operator="arithmetic"/><feColorMatrix values="0 0 0 0 0.533333 0 0 0 0 0.533333 0 0 0 0 0.533333 0 0 0 1 0"/><feBlend in2="effect1_innerShadow_18_13627" result="effect2_innerShadow_18_13627"/></filter></defs></svg>
